X: 25035
T: Maidhc Dainnín Ó Sé's
R: slide
M: 12/8
K: Dmajor
|:e|f2 a g2 e fed B2 A|def agf e3 e3|
f2 a g2 e fed B2 A|def efe d3 d2:|
|:f|e2 e ece f2 a agf|efe efe dcd Bcd|
e2 e ece faa agf|e/f/ge dcB A3 Ac:|

